X: 13391
T: Flight Of The Bumblebee, The
R: reel
M: 4/4
K: Cmajor
f f f f f|e _e d _d c ^c d ^d|e _e d _d c f e ^d|
e _e d _d c ^c d ^d|e _e d _d c ^c d ^d|e _e d ^c d ^c c B|
c ^c d ^d e f e ^d|e _e d ^c d ^c c B|c ^c d ^d e ^f g ^g|
a _a g ^f f _b a ^g|a _a g ^f f ^f g ^g|a _a g ^f f _b a ^g|
a _a g ^f f _b a ^g|a _a g ^f f ^f g ^g|a _a g ^f g ^f f e|
f ^f g ^g a _b a ^g|a _a g ^f g ^f f e|f ^f g ^g a _b a ^g|
e _e D _D C f e ^D|e _e D _D C ^C D ^D|e _e D _D C ^C D ^D|
e _e D ^C D ^C C B|C ^C D ^D e f e ^D|e _e D ^C D ^C C B|
C ^C D ^D e ^f g ^g|a _a g ^f f _b a ^g|a _a g ^f f ^f g ^g|
a _a g ^f f _b a ^g|a _a g ^f f _b a ^g|a _a g ^f f ^f g ^g|a _a g ^f g ^f f e|
f ^f g ^g a _b a ^g|a _a g ^f g ^f f e|f ^f g ^g a _b a ^g|a a _b a a _b|
a _b a ^G a _b a ^G|a _b a ^G a _b a ^G|a ^a b c _d c b _b|a ^a b c _d c b _b|
a d _e a d _e|d _e d ^c d _e d ^c|d _e d ^c d _e d ^c|d ^d e f ^f e _e|
d ^d e f ^f e _e|d ^c c b _b _e d ^c|d ^c c b ^a b c ^c|d ^c c b c b _b a|
e f e ^d e f e ^d|z e z c z|a z F z a z c z|e e z c z|a z F z a z c z|

